( Made using CamBam - http://www.cambam.co.uk )
( test 11/28/2016 2:16:36 PM )
( T0 : 1.5 )
G21 G90 G64 G40
G0 Z3.0
( T0 : 1.5 )
T0 M6
( Contour1 )
G17
M3
G0 X7.5422 Y4.7156
G1 F300.0 Z-1.0
G2 F800.0 Y7.4099 I-1.5782 J1.3472
G1 Y4.7156
G1 F300.0 Z-2.0
G2 F800.0 Y7.4099 I-1.5782 J1.3472
G1 Y4.7156
G1 F300.0 Z-3.0
G2 F800.0 Y7.4099 I-1.5782 J1.3472
G1 Y4.7156
G1 F300.0 Z-4.0
G2 F800.0 Y7.4099 I-1.5782 J1.3472
G1 Y4.7156
G1 F300.0 Z-5.0
G2 F800.0 Y7.4099 I-1.5782 J1.3472
G1 Y4.7156
G1 F300.0 Z-6.0
G2 F800.0 Y7.4099 I-1.5782 J1.3472
G1 Y4.7156
( Contour2 )
G0 Z3.0
G0 X1.2139 Y10.0628
G1 F400.0 Z-1.0
G1 F800.0 Y7.9868
G1 X-0.2501 Y6.6089
G3 Y5.5166 I0.514 J-0.5461
G1 X1.2139 Y4.1387
G1 Y2.0628
G3 X1.9639 Y1.3128 I0.75 J0.0
G1 X4.0399
G1 X5.4178 Y-0.1512
G3 X6.5101 I0.5461 J0.514
G1 X7.888 Y1.3128
G1 X9.9639
G3 X10.7139 Y2.0628 I0.0 J0.75
G1 Y4.1387
G1 X12.178 Y5.5166
G3 Y6.6089 I-0.514 J0.5461
G1 X10.7139 Y7.9868
G1 Y10.0628
G3 X9.9639 Y10.8128 I-0.75 J0.0
G1 X7.888
G1 X6.5101 Y12.2768
G3 X5.4178 I-0.5461 J-0.514
G1 X4.0399 Y10.8128
G1 X1.9639
G3 X1.2139 Y10.0628 I0.0 J-0.75
G1 F400.0 Z-2.0
G1 F800.0 Y7.9868
G1 X-0.2501 Y6.6089
G3 Y5.5166 I0.514 J-0.5461
G1 X1.2139 Y4.1387
G1 Y2.0628
G3 X1.9639 Y1.3128 I0.75 J0.0
G1 X4.0399
G1 X5.4178 Y-0.1512
G3 X6.5101 I0.5461 J0.514
G1 X7.888 Y1.3128
G1 X9.9639
G3 X10.7139 Y2.0628 I0.0 J0.75
G1 Y4.1387
G1 X12.178 Y5.5166
G3 Y6.6089 I-0.514 J0.5461
G1 X10.7139 Y7.9868
G1 Y10.0628
G3 X9.9639 Y10.8128 I-0.75 J0.0
G1 X7.888
G1 X6.5101 Y12.2768
G3 X5.4178 I-0.5461 J-0.514
G1 X4.0399 Y10.8128
G1 X1.9639
G3 X1.2139 Y10.0628 I0.0 J-0.75
G1 F400.0 Z-3.0
G1 F800.0 Y7.9868
G1 X-0.2501 Y6.6089
G3 Y5.5166 I0.514 J-0.5461
G1 X1.2139 Y4.1387
G1 Y2.0628
G3 X1.9639 Y1.3128 I0.75 J0.0
G1 X4.0399
G1 X5.4178 Y-0.1512
G3 X6.5101 I0.5461 J0.514
G1 X7.888 Y1.3128
G1 X9.9639
G3 X10.7139 Y2.0628 I0.0 J0.75
G1 Y4.1387
G1 X12.178 Y5.5166
G3 Y6.6089 I-0.514 J0.5461
G1 X10.7139 Y7.9868
G1 Y10.0628
G3 X9.9639 Y10.8128 I-0.75 J0.0
G1 X7.888
G1 X6.5101 Y12.2768
G3 X5.4178 I-0.5461 J-0.514
G1 X4.0399 Y10.8128
G1 X1.9639
G3 X1.2139 Y10.0628 I0.0 J-0.75
G1 F400.0 Z-4.0
G1 F800.0 Y7.9868
G1 X-0.2501 Y6.6089
G3 Y5.5166 I0.514 J-0.5461
G1 X1.2139 Y4.1387
G1 Y2.0628
G3 X1.9639 Y1.3128 I0.75 J0.0
G1 X4.0399
G1 X5.4178 Y-0.1512
G3 X6.5101 I0.5461 J0.514
G1 X7.888 Y1.3128
G1 X9.9639
G3 X10.7139 Y2.0628 I0.0 J0.75
G1 Y4.1387
G1 X12.178 Y5.5166
G3 Y6.6089 I-0.514 J0.5461
G1 X10.7139 Y7.9868
G1 Y10.0628
G3 X9.9639 Y10.8128 I-0.75 J0.0
G1 X7.888
G1 X6.5101 Y12.2768
G3 X5.4178 I-0.5461 J-0.514
G1 X4.0399 Y10.8128
G1 X1.9639
G3 X1.2139 Y10.0628 I0.0 J-0.75
G1 F400.0 Z-5.0
G1 F800.0 Y7.9868
G1 X-0.2501 Y6.6089
G3 Y5.5166 I0.514 J-0.5461
G1 X1.2139 Y4.1387
G1 Y2.0628
G3 X1.9639 Y1.3128 I0.75 J0.0
G1 X2.1419
G0 Z-4.0
G1 X4.0399
G1 X4.1419 Y1.2044
G1 F400.0 Z-5.0
G1 F800.0 X5.4178 Y-0.1512
G3 X6.5101 I0.5461 J0.514
G1 X7.888 Y1.3128
G1 X9.9639
G3 X10.7139 Y2.0628 I0.0 J0.75
G1 Y4.1387
G1 X12.178 Y5.5166
G3 Y6.6089 I-0.514 J0.5461
G1 X10.7139 Y7.9868
G1 Y10.0628
G3 X9.9639 Y10.8128 I-0.75 J0.0
G1 X9.674
G0 Z-4.0
G1 X7.888
G1 X7.674 Y11.0401
G1 F400.0 Z-5.0
G1 F800.0 X6.5101 Y12.2768
G3 X5.4178 I-0.5461 J-0.514
G1 X4.0399 Y10.8128
G1 X1.9639
G3 X1.2139 Y10.0628 I0.0 J-0.75
G1 F400.0 Z-6.0
G1 F800.0 Y7.9868
G1 X-0.2501 Y6.6089
G3 Y5.5166 I0.514 J-0.5461
G1 X1.2139 Y4.1387
G1 Y2.0628
G3 X1.9639 Y1.3128 I0.75 J0.0
G1 X2.1419
G0 Z-4.0
G1 X4.0399
G1 X4.1419 Y1.2044
G1 F400.0 Z-6.0
G1 F800.0 X5.4178 Y-0.1512
G3 X6.5101 I0.5461 J0.514
G1 X7.888 Y1.3128
G1 X9.9639
G3 X10.7139 Y2.0628 I0.0 J0.75
G1 Y4.1387
G1 X12.178 Y5.5166
G3 Y6.6089 I-0.514 J0.5461
G1 X10.7139 Y7.9868
G1 Y10.0628
G3 X9.9639 Y10.8128 I-0.75 J0.0
G1 X9.674
G0 Z-4.0
G1 X7.888
G1 X7.674 Y11.0401
G1 F400.0 Z-6.0
G1 F800.0 X6.5101 Y12.2768
G3 X5.4178 I-0.5461 J-0.514
G1 X4.0399 Y10.8128
G1 X1.9639
G3 X1.2139 Y10.0628 I0.0 J-0.75
G0 Z3.0
M5
M30
