( Made using CamBam - http://www.cambam.co.uk )
( test alu 2 3/21/2017 12:01:39 PM )
( T0 : 2.0 )
G21 G90 G64 G40
G0 Z3.0
( T0 : 2.0 )
T0 M6
( Contour1 )
G17
M3 S1000
G0 X7.3216 Y7.5011
G1 F150.0 Z-0.1
G1 F400.0 Y4.4989
G2 Y7.5011 I-1.3216 J1.5011
G1 F150.0 Z-0.2
G1 F400.0 Y4.4989
G2 Y7.5011 I-1.3216 J1.5011
G1 F150.0 Z-0.3
G1 F400.0 Y4.4989
G2 Y7.5011 I-1.3216 J1.5011
G1 F150.0 Z-0.4
G1 F400.0 Y4.4989
G2 Y7.5011 I-1.3216 J1.5011
G1 F150.0 Z-0.5
G1 F400.0 Y4.4989
G2 Y7.5011 I-1.3216 J1.5011
G1 F150.0 Z-0.6
G1 F400.0 Y4.4989
G2 Y7.5011 I-1.3216 J1.5011
G1 F150.0 Z-0.7
G1 F400.0 Y4.4989
G2 Y7.5011 I-1.3216 J1.5011
G1 F150.0 Z-0.8
G1 F400.0 Y4.4989
G2 Y7.5011 I-1.3216 J1.5011
G1 F150.0 Z-0.9
G1 F400.0 Y4.4989
G2 Y7.5011 I-1.3216 J1.5011
G1 F150.0 Z-1.0
G1 F400.0 Y4.4989
G2 Y7.5011 I-1.3216 J1.5011
G1 F150.0 Z-1.1
G1 F400.0 Y4.4989
G2 Y7.5011 I-1.3216 J1.5011
G1 F150.0 Z-1.2
G1 F400.0 Y4.4989
G2 Y7.5011 I-1.3216 J1.5011
G1 F150.0 Z-1.3
G1 F400.0 Y4.4989
G2 Y7.5011 I-1.3216 J1.5011
G1 F150.0 Z-1.4
G1 F400.0 Y4.4989
G2 Y7.5011 I-1.3216 J1.5011
G1 F150.0 Z-1.5
G1 F400.0 Y4.4989
G2 Y7.5011 I-1.3216 J1.5011
G1 F150.0 Z-1.6
G1 F400.0 Y4.4989
G2 Y7.5011 I-1.3216 J1.5011
G1 F150.0 Z-1.7
G1 F400.0 Y4.4989
G2 Y7.5011 I-1.3216 J1.5011
G1 F150.0 Z-1.8
G1 F400.0 Y4.4989
G2 Y7.5011 I-1.3216 J1.5011
G1 F150.0 Z-1.9
G1 F400.0 Y4.4989
G2 Y7.5011 I-1.3216 J1.5011
G1 F150.0 Z-2.0
G1 F400.0 Y4.4989
G2 Y7.5011 I-1.3216 J1.5011
G1 F150.0 Z-2.1
G1 F400.0 Y4.4989
G2 Y7.5011 I-1.3216 J1.5011
G1 F150.0 Z-2.2
G1 F400.0 Y4.4989
G2 Y7.5011 I-1.3216 J1.5011
G1 F150.0 Z-2.3
G1 F400.0 Y4.4989
G2 Y7.5011 I-1.3216 J1.5011
G1 F150.0 Z-2.4
G1 F400.0 Y4.4989
G2 Y7.5011 I-1.3216 J1.5011
G1 F150.0 Z-2.5
G1 F400.0 Y4.4989
G2 Y7.5011 I-1.3216 J1.5011
G1 F150.0 Z-2.6
G1 F400.0 Y4.4989
G2 Y7.5011 I-1.3216 J1.5011
G1 F150.0 Z-2.7
G1 F400.0 Y4.4989
G2 Y7.5011 I-1.3216 J1.5011
G1 F150.0 Z-2.8
G1 F400.0 Y4.4989
G2 Y7.5011 I-1.3216 J1.5011
G1 F150.0 Z-2.9
G1 F400.0 Y4.4989
G2 Y7.5011 I-1.3216 J1.5011
G1 F150.0 Z-3.0
G1 F400.0 Y4.4989
G2 Y7.5011 I-1.3216 J1.5011
G1 F150.0 Z-3.1
G1 F400.0 Y4.4989
G2 Y7.5011 I-1.3216 J1.5011
G1 F150.0 Z-3.2
G1 F400.0 Y4.4989
G2 Y7.5011 I-1.3216 J1.5011
G1 F150.0 Z-3.3
G1 F400.0 Y4.4989
G2 Y7.5011 I-1.3216 J1.5011
G1 F150.0 Z-3.4
G1 F400.0 Y4.4989
G2 Y7.5011 I-1.3216 J1.5011
G1 F150.0 Z-3.5
G1 F400.0 Y4.4989
G2 Y7.5011 I-1.3216 J1.5011
G1 F150.0 Z-3.6
G1 F400.0 Y4.4989
G2 Y7.5011 I-1.3216 J1.5011
G1 F150.0 Z-3.7
G1 F400.0 Y4.4989
G2 Y7.5011 I-1.3216 J1.5011
G1 F150.0 Z-3.8
G1 F400.0 Y4.4989
G2 Y7.5011 I-1.3216 J1.5011
G1 F150.0 Z-3.9
G1 F400.0 Y4.4989
G2 Y7.5011 I-1.3216 J1.5011
G1 F150.0 Z-4.0
G1 F400.0 Y4.4989
G2 Y7.5011 I-1.3216 J1.5011
G1 F150.0 Z-4.1
G1 F400.0 Y4.4989
G2 Y7.5011 I-1.3216 J1.5011
G1 F150.0 Z-4.2
G1 F400.0 Y4.4989
G2 Y7.5011 I-1.3216 J1.5011
G1 F150.0 Z-4.3
G1 F400.0 Y4.4989
G2 Y7.5011 I-1.3216 J1.5011
G1 F150.0 Z-4.4
G1 F400.0 Y4.4989
G2 Y7.5011 I-1.3216 J1.5011
G1 F150.0 Z-4.5
G1 F400.0 Y4.4989
G2 Y7.5011 I-1.3216 J1.5011
G1 F150.0 Z-4.6
G1 F400.0 Y4.4989
G2 Y7.5011 I-1.3216 J1.5011
G1 F150.0 Z-4.7
G1 F400.0 Y4.4989
G2 Y7.5011 I-1.3216 J1.5011
G1 F150.0 Z-4.8
G1 F400.0 Y4.4989
G2 Y7.5011 I-1.3216 J1.5011
G1 F150.0 Z-4.9
G1 F400.0 Y4.4989
G2 Y7.5011 I-1.3216 J1.5011
G1 F150.0 Z-5.0
G1 F400.0 Y4.4989
G2 Y7.5011 I-1.3216 J1.5011
( Contour2 )
S1000
G0 Z3.0
G0 X5.2718 Y12.3854
G1 F150.0 Z-0.1
G1 F400.0 X3.9679 Y11.0
G1 X2.0
G3 X1.0 Y10.0 I0.0 J-1.0
G1 Y8.0321
G1 X-0.3854 Y6.7282
G3 Y5.2718 I0.6854 J-0.7282
G1 X1.0 Y3.9679
G1 Y2.0
G3 X2.0 Y1.0 I1.0 J0.0
G1 X3.9679
G1 X5.2718 Y-0.3854
G3 X6.7282 I0.7282 J0.6854
G1 X8.0321 Y1.0
G1 X10.0
G3 X11.0 Y2.0 I0.0 J1.0
G1 Y10.0
G3 X10.0 Y11.0 I-1.0 J0.0
G1 X8.0321
G1 X6.7282 Y12.3854
G3 X5.2718 I-0.7282 J-0.6854
G1 F150.0 Z-0.2
G1 F400.0 X3.9679 Y11.0
G1 X2.0
G3 X1.0 Y10.0 I0.0 J-1.0
G1 Y8.0321
G1 X-0.3854 Y6.7282
G3 Y5.2718 I0.6854 J-0.7282
G1 X1.0 Y3.9679
G1 Y2.0
G3 X2.0 Y1.0 I1.0 J0.0
G1 X3.9679
G1 X5.2718 Y-0.3854
G3 X6.7282 I0.7282 J0.6854
G1 X8.0321 Y1.0
G1 X10.0
G3 X11.0 Y2.0 I0.0 J1.0
G1 Y10.0
G3 X10.0 Y11.0 I-1.0 J0.0
G1 X8.0321
G1 X6.7282 Y12.3854
G3 X5.2718 I-0.7282 J-0.6854
G1 F150.0 Z-0.3
G1 F400.0 X3.9679 Y11.0
G1 X2.0
G3 X1.0 Y10.0 I0.0 J-1.0
G1 Y8.0321
G1 X-0.3854 Y6.7282
G3 Y5.2718 I0.6854 J-0.7282
G1 X1.0 Y3.9679
G1 Y2.0
G3 X2.0 Y1.0 I1.0 J0.0
G1 X3.9679
G1 X5.2718 Y-0.3854
G3 X6.7282 I0.7282 J0.6854
G1 X8.0321 Y1.0
G1 X10.0
G3 X11.0 Y2.0 I0.0 J1.0
G1 Y10.0
G3 X10.0 Y11.0 I-1.0 J0.0
G1 X8.0321
G1 X6.7282 Y12.3854
G3 X5.2718 I-0.7282 J-0.6854
G1 F150.0 Z-0.4
G1 F400.0 X3.9679 Y11.0
G1 X2.0
G3 X1.0 Y10.0 I0.0 J-1.0
G1 Y8.0321
G1 X-0.3854 Y6.7282
G3 Y5.2718 I0.6854 J-0.7282
G1 X1.0 Y3.9679
G1 Y2.0
G3 X2.0 Y1.0 I1.0 J0.0
G1 X3.9679
G1 X5.2718 Y-0.3854
G3 X6.7282 I0.7282 J0.6854
G1 X8.0321 Y1.0
G1 X10.0
G3 X11.0 Y2.0 I0.0 J1.0
G1 Y10.0
G3 X10.0 Y11.0 I-1.0 J0.0
G1 X8.0321
G1 X6.7282 Y12.3854
G3 X5.2718 I-0.7282 J-0.6854
G1 F150.0 Z-0.5
G1 F400.0 X3.9679 Y11.0
G1 X2.0
G3 X1.0 Y10.0 I0.0 J-1.0
G1 Y8.0321
G1 X-0.3854 Y6.7282
G3 Y5.2718 I0.6854 J-0.7282
G1 X1.0 Y3.9679
G1 Y2.0
G3 X2.0 Y1.0 I1.0 J0.0
G1 X3.9679
G1 X5.2718 Y-0.3854
G3 X6.7282 I0.7282 J0.6854
G1 X8.0321 Y1.0
G1 X10.0
G3 X11.0 Y2.0 I0.0 J1.0
G1 Y10.0
G3 X10.0 Y11.0 I-1.0 J0.0
G1 X8.0321
G1 X6.7282 Y12.3854
G3 X5.2718 I-0.7282 J-0.6854
G1 F150.0 Z-0.6
G1 F400.0 X3.9679 Y11.0
G1 X2.0
G3 X1.0 Y10.0 I0.0 J-1.0
G1 Y8.0321
G1 X-0.3854 Y6.7282
G3 Y5.2718 I0.6854 J-0.7282
G1 X1.0 Y3.9679
G1 Y2.0
G3 X2.0 Y1.0 I1.0 J0.0
G1 X3.9679
G1 X5.2718 Y-0.3854
G3 X6.7282 I0.7282 J0.6854
G1 X8.0321 Y1.0
G1 X10.0
G3 X11.0 Y2.0 I0.0 J1.0
G1 Y10.0
G3 X10.0 Y11.0 I-1.0 J0.0
G1 X8.0321
G1 X6.7282 Y12.3854
G3 X5.2718 I-0.7282 J-0.6854
G1 F150.0 Z-0.7
G1 F400.0 X3.9679 Y11.0
G1 X2.0
G3 X1.0 Y10.0 I0.0 J-1.0
G1 Y8.0321
G1 X-0.3854 Y6.7282
G3 Y5.2718 I0.6854 J-0.7282
G1 X1.0 Y3.9679
G1 Y2.0
G3 X2.0 Y1.0 I1.0 J0.0
G1 X3.9679
G1 X5.2718 Y-0.3854
G3 X6.7282 I0.7282 J0.6854
G1 X8.0321 Y1.0
G1 X10.0
G3 X11.0 Y2.0 I0.0 J1.0
G1 Y10.0
G3 X10.0 Y11.0 I-1.0 J0.0
G1 X8.0321
G1 X6.7282 Y12.3854
G3 X5.2718 I-0.7282 J-0.6854
G1 F150.0 Z-0.8
G1 F400.0 X3.9679 Y11.0
G1 X2.0
G3 X1.0 Y10.0 I0.0 J-1.0
G1 Y8.0321
G1 X-0.3854 Y6.7282
G3 Y5.2718 I0.6854 J-0.7282
G1 X1.0 Y3.9679
G1 Y2.0
G3 X2.0 Y1.0 I1.0 J0.0
G1 X3.9679
G1 X5.2718 Y-0.3854
G3 X6.7282 I0.7282 J0.6854
G1 X8.0321 Y1.0
G1 X10.0
G3 X11.0 Y2.0 I0.0 J1.0
G1 Y10.0
G3 X10.0 Y11.0 I-1.0 J0.0
G1 X8.0321
G1 X6.7282 Y12.3854
G3 X5.2718 I-0.7282 J-0.6854
G1 F150.0 Z-0.9
G1 F400.0 X3.9679 Y11.0
G1 X2.0
G3 X1.0 Y10.0 I0.0 J-1.0
G1 Y8.0321
G1 X-0.3854 Y6.7282
G3 Y5.2718 I0.6854 J-0.7282
G1 X1.0 Y3.9679
G1 Y2.0
G3 X2.0 Y1.0 I1.0 J0.0
G1 X3.9679
G1 X5.2718 Y-0.3854
G3 X6.7282 I0.7282 J0.6854
G1 X8.0321 Y1.0
G1 X10.0
G3 X11.0 Y2.0 I0.0 J1.0
G1 Y10.0
G3 X10.0 Y11.0 I-1.0 J0.0
G1 X8.0321
G1 X6.7282 Y12.3854
G3 X5.2718 I-0.7282 J-0.6854
G1 F150.0 Z-1.0
G1 F400.0 X3.9679 Y11.0
G1 X2.0
G3 X1.0 Y10.0 I0.0 J-1.0
G1 Y8.0321
G1 X-0.3854 Y6.7282
G3 Y5.2718 I0.6854 J-0.7282
G1 X1.0 Y3.9679
G1 Y2.0
G3 X2.0 Y1.0 I1.0 J0.0
G1 X3.9679
G1 X5.2718 Y-0.3854
G3 X6.7282 I0.7282 J0.6854
G1 X8.0321 Y1.0
G1 X10.0
G3 X11.0 Y2.0 I0.0 J1.0
G1 Y10.0
G3 X10.0 Y11.0 I-1.0 J0.0
G1 X8.0321
G1 X6.7282 Y12.3854
G3 X5.2718 I-0.7282 J-0.6854
G1 F150.0 Z-1.1
G1 F400.0 X3.9679 Y11.0
G1 X2.0
G3 X1.0 Y10.0 I0.0 J-1.0
G1 Y8.0321
G1 X-0.3854 Y6.7282
G3 Y5.2718 I0.6854 J-0.7282
G1 X1.0 Y3.9679
G1 Y2.0
G3 X2.0 Y1.0 I1.0 J0.0
G1 X3.9679
G1 X5.2718 Y-0.3854
G3 X6.7282 I0.7282 J0.6854
G1 X8.0321 Y1.0
G1 X10.0
G3 X11.0 Y2.0 I0.0 J1.0
G1 Y10.0
G3 X10.0 Y11.0 I-1.0 J0.0
G1 X8.0321
G1 X6.7282 Y12.3854
G3 X5.2718 I-0.7282 J-0.6854
G1 F150.0 Z-1.2
G1 F400.0 X3.9679 Y11.0
G1 X2.0
G3 X1.0 Y10.0 I0.0 J-1.0
G1 Y8.0321
G1 X-0.3854 Y6.7282
G3 Y5.2718 I0.6854 J-0.7282
G1 X1.0 Y3.9679
G1 Y2.0
G3 X2.0 Y1.0 I1.0 J0.0
G1 X3.9679
G1 X5.2718 Y-0.3854
G3 X6.7282 I0.7282 J0.6854
G1 X8.0321 Y1.0
G1 X10.0
G3 X11.0 Y2.0 I0.0 J1.0
G1 Y10.0
G3 X10.0 Y11.0 I-1.0 J0.0
G1 X8.0321
G1 X6.7282 Y12.3854
G3 X5.2718 I-0.7282 J-0.6854
G1 F150.0 Z-1.3
G1 F400.0 X3.9679 Y11.0
G1 X2.0
G3 X1.0 Y10.0 I0.0 J-1.0
G1 Y8.0321
G1 X-0.3854 Y6.7282
G3 Y5.2718 I0.6854 J-0.7282
G1 X1.0 Y3.9679
G1 Y2.0
G3 X2.0 Y1.0 I1.0 J0.0
G1 X3.9679
G1 X5.2718 Y-0.3854
G3 X6.7282 I0.7282 J0.6854
G1 X8.0321 Y1.0
G1 X10.0
G3 X11.0 Y2.0 I0.0 J1.0
G1 Y10.0
G3 X10.0 Y11.0 I-1.0 J0.0
G1 X8.0321
G1 X6.7282 Y12.3854
G3 X5.2718 I-0.7282 J-0.6854
G1 F150.0 Z-1.4
G1 F400.0 X3.9679 Y11.0
G1 X2.0
G3 X1.0 Y10.0 I0.0 J-1.0
G1 Y8.0321
G1 X-0.3854 Y6.7282
G3 Y5.2718 I0.6854 J-0.7282
G1 X1.0 Y3.9679
G1 Y2.0
G3 X2.0 Y1.0 I1.0 J0.0
G1 X3.9679
G1 X5.2718 Y-0.3854
G3 X6.7282 I0.7282 J0.6854
G1 X8.0321 Y1.0
G1 X10.0
G3 X11.0 Y2.0 I0.0 J1.0
G1 Y10.0
G3 X10.0 Y11.0 I-1.0 J0.0
G1 X8.0321
G1 X6.7282 Y12.3854
G3 X5.2718 I-0.7282 J-0.6854
G1 F150.0 Z-1.5
G1 F400.0 X3.9679 Y11.0
G1 X2.0
G3 X1.0 Y10.0 I0.0 J-1.0
G1 Y8.0321
G1 X-0.3854 Y6.7282
G3 Y5.2718 I0.6854 J-0.7282
G1 X1.0 Y3.9679
G1 Y2.0
G3 X2.0 Y1.0 I1.0 J0.0
G1 X3.9679
G1 X5.2718 Y-0.3854
G3 X6.7282 I0.7282 J0.6854
G1 X8.0321 Y1.0
G1 X10.0
G3 X11.0 Y2.0 I0.0 J1.0
G1 Y10.0
G3 X10.0 Y11.0 I-1.0 J0.0
G1 X8.0321
G1 X6.7282 Y12.3854
G3 X5.2718 I-0.7282 J-0.6854
G1 F150.0 Z-1.6
G1 F400.0 X3.9679 Y11.0
G1 X2.0
G3 X1.0 Y10.0 I0.0 J-1.0
G1 Y8.0321
G1 X-0.3854 Y6.7282
G3 Y5.2718 I0.6854 J-0.7282
G1 X1.0 Y3.9679
G1 Y2.0
G3 X2.0 Y1.0 I1.0 J0.0
G1 X3.9679
G1 X5.2718 Y-0.3854
G3 X6.7282 I0.7282 J0.6854
G1 X8.0321 Y1.0
G1 X10.0
G3 X11.0 Y2.0 I0.0 J1.0
G1 Y10.0
G3 X10.0 Y11.0 I-1.0 J0.0
G1 X8.0321
G1 X6.7282 Y12.3854
G3 X5.2718 I-0.7282 J-0.6854
G1 F150.0 Z-1.7
G1 F400.0 X3.9679 Y11.0
G1 X2.0
G3 X1.0 Y10.0 I0.0 J-1.0
G1 Y8.0321
G1 X-0.3854 Y6.7282
G3 Y5.2718 I0.6854 J-0.7282
G1 X1.0 Y3.9679
G1 Y2.0
G3 X2.0 Y1.0 I1.0 J0.0
G1 X3.9679
G1 X5.2718 Y-0.3854
G3 X6.7282 I0.7282 J0.6854
G1 X8.0321 Y1.0
G1 X10.0
G3 X11.0 Y2.0 I0.0 J1.0
G1 Y10.0
G3 X10.0 Y11.0 I-1.0 J0.0
G1 X8.0321
G1 X6.7282 Y12.3854
G3 X5.2718 I-0.7282 J-0.6854
G1 F150.0 Z-1.8
G1 F400.0 X3.9679 Y11.0
G1 X2.0
G3 X1.0 Y10.0 I0.0 J-1.0
G1 Y8.0321
G1 X-0.3854 Y6.7282
G3 Y5.2718 I0.6854 J-0.7282
G1 X1.0 Y3.9679
G1 Y2.0
G3 X2.0 Y1.0 I1.0 J0.0
G1 X3.9679
G1 X5.2718 Y-0.3854
G3 X6.7282 I0.7282 J0.6854
G1 X8.0321 Y1.0
G1 X10.0
G3 X11.0 Y2.0 I0.0 J1.0
G1 Y10.0
G3 X10.0 Y11.0 I-1.0 J0.0
G1 X8.0321
G1 X6.7282 Y12.3854
G3 X5.2718 I-0.7282 J-0.6854
G1 F150.0 Z-1.9
G1 F400.0 X3.9679 Y11.0
G1 X2.0
G3 X1.0 Y10.0 I0.0 J-1.0
G1 Y8.0321
G1 X-0.3854 Y6.7282
G3 Y5.2718 I0.6854 J-0.7282
G1 X1.0 Y3.9679
G1 Y2.0
G3 X2.0 Y1.0 I1.0 J0.0
G1 X3.9679
G1 X5.2718 Y-0.3854
G3 X6.7282 I0.7282 J0.6854
G1 X8.0321 Y1.0
G1 X10.0
G3 X11.0 Y2.0 I0.0 J1.0
G1 Y10.0
G3 X10.0 Y11.0 I-1.0 J0.0
G1 X8.0321
G1 X6.7282 Y12.3854
G3 X5.2718 I-0.7282 J-0.6854
G1 F150.0 Z-2.0
G1 F400.0 X3.9679 Y11.0
G1 X2.0
G3 X1.0 Y10.0 I0.0 J-1.0
G1 Y8.0321
G1 X-0.3854 Y6.7282
G3 Y5.2718 I0.6854 J-0.7282
G1 X1.0 Y3.9679
G1 Y2.0
G3 X2.0 Y1.0 I1.0 J0.0
G1 X3.9679
G1 X5.2718 Y-0.3854
G3 X6.7282 I0.7282 J0.6854
G1 X8.0321 Y1.0
G1 X10.0
G3 X11.0 Y2.0 I0.0 J1.0
G1 Y10.0
G3 X10.0 Y11.0 I-1.0 J0.0
G1 X8.0321
G1 X6.7282 Y12.3854
G3 X5.2718 I-0.7282 J-0.6854
G1 F150.0 Z-2.1
G1 F400.0 X3.9679 Y11.0
G1 X2.0
G3 X1.0 Y10.0 I0.0 J-1.0
G1 Y8.0321
G1 X-0.3854 Y6.7282
G3 Y5.2718 I0.6854 J-0.7282
G1 X1.0 Y3.9679
G1 Y2.0
G3 X2.0 Y1.0 I1.0 J0.0
G1 X3.9679
G1 X5.2718 Y-0.3854
G3 X6.7282 I0.7282 J0.6854
G1 X8.0321 Y1.0
G1 X10.0
G3 X11.0 Y2.0 I0.0 J1.0
G1 Y10.0
G3 X10.0 Y11.0 I-1.0 J0.0
G1 X8.0321
G1 X6.7282 Y12.3854
G3 X5.2718 I-0.7282 J-0.6854
G1 F150.0 Z-2.2
G1 F400.0 X3.9679 Y11.0
G1 X2.0
G3 X1.0 Y10.0 I0.0 J-1.0
G1 Y8.0321
G1 X-0.3854 Y6.7282
G3 Y5.2718 I0.6854 J-0.7282
G1 X1.0 Y3.9679
G1 Y2.0
G3 X2.0 Y1.0 I1.0 J0.0
G1 X3.9679
G1 X5.2718 Y-0.3854
G3 X6.7282 I0.7282 J0.6854
G1 X8.0321 Y1.0
G1 X10.0
G3 X11.0 Y2.0 I0.0 J1.0
G1 Y10.0
G3 X10.0 Y11.0 I-1.0 J0.0
G1 X8.0321
G1 X6.7282 Y12.3854
G3 X5.2718 I-0.7282 J-0.6854
G1 F150.0 Z-2.3
G1 F400.0 X3.9679 Y11.0
G1 X2.0
G3 X1.0 Y10.0 I0.0 J-1.0
G1 Y8.0321
G1 X-0.3854 Y6.7282
G3 Y5.2718 I0.6854 J-0.7282
G1 X1.0 Y3.9679
G1 Y2.0
G3 X2.0 Y1.0 I1.0 J0.0
G1 X3.9679
G1 X5.2718 Y-0.3854
G3 X6.7282 I0.7282 J0.6854
G1 X8.0321 Y1.0
G1 X10.0
G3 X11.0 Y2.0 I0.0 J1.0
G1 Y10.0
G3 X10.0 Y11.0 I-1.0 J0.0
G1 X8.0321
G1 X6.7282 Y12.3854
G3 X5.2718 I-0.7282 J-0.6854
G1 F150.0 Z-2.4
G1 F400.0 X3.9679 Y11.0
G1 X2.0
G3 X1.0 Y10.0 I0.0 J-1.0
G1 Y8.0321
G1 X-0.3854 Y6.7282
G3 Y5.2718 I0.6854 J-0.7282
G1 X1.0 Y3.9679
G1 Y2.0
G3 X2.0 Y1.0 I1.0 J0.0
G1 X3.9679
G1 X5.2718 Y-0.3854
G3 X6.7282 I0.7282 J0.6854
G1 X8.0321 Y1.0
G1 X10.0
G3 X11.0 Y2.0 I0.0 J1.0
G1 Y10.0
G3 X10.0 Y11.0 I-1.0 J0.0
G1 X8.0321
G1 X6.7282 Y12.3854
G3 X5.2718 I-0.7282 J-0.6854
G1 F150.0 Z-2.5
G1 F400.0 X3.9679 Y11.0
G1 X2.0
G3 X1.0 Y10.0 I0.0 J-1.0
G1 Y8.0321
G1 X-0.3854 Y6.7282
G3 Y5.2718 I0.6854 J-0.7282
G1 X1.0 Y3.9679
G1 Y2.0
G3 X2.0 Y1.0 I1.0 J0.0
G1 X3.9679
G1 X5.2718 Y-0.3854
G3 X6.7282 I0.7282 J0.6854
G1 X8.0321 Y1.0
G1 X10.0
G3 X11.0 Y2.0 I0.0 J1.0
G1 Y10.0
G3 X10.0 Y11.0 I-1.0 J0.0
G1 X8.0321
G1 X6.7282 Y12.3854
G3 X5.2718 I-0.7282 J-0.6854
G1 F150.0 Z-2.6
G1 F400.0 X3.9679 Y11.0
G1 X2.0
G3 X1.0 Y10.0 I0.0 J-1.0
G1 Y8.0321
G1 X-0.3854 Y6.7282
G3 Y5.2718 I0.6854 J-0.7282
G1 X1.0 Y3.9679
G1 Y2.0
G3 X2.0 Y1.0 I1.0 J0.0
G1 X3.9679
G1 X5.2718 Y-0.3854
G3 X6.7282 I0.7282 J0.6854
G1 X8.0321 Y1.0
G1 X10.0
G3 X11.0 Y2.0 I0.0 J1.0
G1 Y10.0
G3 X10.0 Y11.0 I-1.0 J0.0
G1 X8.0321
G1 X6.7282 Y12.3854
G3 X5.2718 I-0.7282 J-0.6854
G1 F150.0 Z-2.7
G1 F400.0 X3.9679 Y11.0
G1 X2.0
G3 X1.0 Y10.0 I0.0 J-1.0
G1 Y8.0321
G1 X-0.3854 Y6.7282
G3 Y5.2718 I0.6854 J-0.7282
G1 X1.0 Y3.9679
G1 Y2.0
G3 X2.0 Y1.0 I1.0 J0.0
G1 X3.9679
G1 X5.2718 Y-0.3854
G3 X6.7282 I0.7282 J0.6854
G1 X8.0321 Y1.0
G1 X10.0
G3 X11.0 Y2.0 I0.0 J1.0
G1 Y10.0
G3 X10.0 Y11.0 I-1.0 J0.0
G1 X8.0321
G1 X6.7282 Y12.3854
G3 X5.2718 I-0.7282 J-0.6854
G1 F150.0 Z-2.8
G1 F400.0 X3.9679 Y11.0
G1 X2.0
G3 X1.0 Y10.0 I0.0 J-1.0
G1 Y8.0321
G1 X-0.3854 Y6.7282
G3 Y5.2718 I0.6854 J-0.7282
G1 X1.0 Y3.9679
G1 Y2.0
G3 X2.0 Y1.0 I1.0 J0.0
G1 X3.9679
G1 X5.2718 Y-0.3854
G3 X6.7282 I0.7282 J0.6854
G1 X8.0321 Y1.0
G1 X10.0
G3 X11.0 Y2.0 I0.0 J1.0
G1 Y10.0
G3 X10.0 Y11.0 I-1.0 J0.0
G1 X8.0321
G1 X6.7282 Y12.3854
G3 X5.2718 I-0.7282 J-0.6854
G1 F150.0 Z-2.9
G1 F400.0 X3.9679 Y11.0
G1 X2.0
G3 X1.0 Y10.0 I0.0 J-1.0
G1 Y8.0321
G1 X-0.3854 Y6.7282
G3 Y5.2718 I0.6854 J-0.7282
G1 X1.0 Y3.9679
G1 Y2.0
G3 X2.0 Y1.0 I1.0 J0.0
G1 X3.9679
G1 X5.2718 Y-0.3854
G3 X6.7282 I0.7282 J0.6854
G1 X8.0321 Y1.0
G1 X10.0
G3 X11.0 Y2.0 I0.0 J1.0
G1 Y10.0
G3 X10.0 Y11.0 I-1.0 J0.0
G1 X8.0321
G1 X6.7282 Y12.3854
G3 X5.2718 I-0.7282 J-0.6854
G1 F150.0 Z-3.0
G1 F400.0 X3.9679 Y11.0
G1 X2.0
G3 X1.0 Y10.0 I0.0 J-1.0
G1 Y8.0321
G1 X-0.3854 Y6.7282
G3 Y5.2718 I0.6854 J-0.7282
G1 X1.0 Y3.9679
G1 Y2.0
G3 X2.0 Y1.0 I1.0 J0.0
G1 X3.9679
G1 X5.2718 Y-0.3854
G3 X6.7282 I0.7282 J0.6854
G1 X8.0321 Y1.0
G1 X10.0
G3 X11.0 Y2.0 I0.0 J1.0
G1 Y4.0
G1 Y6.0
G1 Y8.0
G1 Y10.0
G3 X10.0 Y11.0 I-1.0 J0.0
G1 X8.0321
G1 X6.7282 Y12.3854
G3 X5.2718 I-0.7282 J-0.6854
G1 F150.0 Z-3.1
G1 F400.0 X3.9679 Y11.0
G1 X2.0
G3 X1.0 Y10.0 I0.0 J-1.0
G1 Y8.0321
G1 X-0.3854 Y6.7282
G3 Y5.2718 I0.6854 J-0.7282
G1 X1.0 Y3.9679
G1 Y2.0
G3 X2.0 Y1.0 I1.0 J0.0
G1 X3.9679
G1 X5.2718 Y-0.3854
G3 X6.7282 I0.7282 J0.6854
G1 X8.0321 Y1.0
G1 X10.0
G3 X11.0 Y2.0 I0.0 J1.0
G1 Y4.0
G1 Y6.0 Z-3.0
G1 Y8.0 Z-3.1
G1 Y10.0
G3 X10.0 Y11.0 I-1.0 J0.0
G1 X8.0321
G1 X6.7282 Y12.3854
G3 X5.2718 I-0.7282 J-0.6854
G1 F150.0 Z-3.2
G1 F400.0 X3.9679 Y11.0
G1 X2.0
G3 X1.0 Y10.0 I0.0 J-1.0
G1 Y8.0321
G1 X-0.3854 Y6.7282
G3 Y5.2718 I0.6854 J-0.7282
G1 X1.0 Y3.9679
G1 Y2.0
G3 X2.0 Y1.0 I1.0 J0.0
G1 X3.9679
G1 X5.2718 Y-0.3854
G3 X6.7282 I0.7282 J0.6854
G1 X8.0321 Y1.0
G1 X10.0
G3 X11.0 Y2.0 I0.0 J1.0
G1 Y4.0
G1 Y6.0 Z-3.0
G1 Y8.0 Z-3.2
G1 Y10.0
G3 X10.0 Y11.0 I-1.0 J0.0
G1 X8.0321
G1 X6.7282 Y12.3854
G3 X5.2718 I-0.7282 J-0.6854
G1 F150.0 Z-3.3
G1 F400.0 X3.9679 Y11.0
G1 X2.0
G3 X1.0 Y10.0 I0.0 J-1.0
G1 Y8.0321
G1 X-0.3854 Y6.7282
G3 Y5.2718 I0.6854 J-0.7282
G1 X1.0 Y3.9679
G1 Y2.0
G3 X2.0 Y1.0 I1.0 J0.0
G1 X3.9679
G1 X5.2718 Y-0.3854
G3 X6.7282 I0.7282 J0.6854
G1 X8.0321 Y1.0
G1 X10.0
G3 X11.0 Y2.0 I0.0 J1.0
G1 Y4.0
G1 Y6.0 Z-3.0
G1 Y8.0 Z-3.3
G1 Y10.0
G3 X10.0 Y11.0 I-1.0 J0.0
G1 X8.0321
G1 X6.7282 Y12.3854
G3 X5.2718 I-0.7282 J-0.6854
G1 F150.0 Z-3.4
G1 F400.0 X3.9679 Y11.0
G1 X2.0
G3 X1.0 Y10.0 I0.0 J-1.0
G1 Y8.0321
G1 X-0.3854 Y6.7282
G3 Y5.2718 I0.6854 J-0.7282
G1 X1.0 Y3.9679
G1 Y2.0
G3 X2.0 Y1.0 I1.0 J0.0
G1 X3.9679
G1 X5.2718 Y-0.3854
G3 X6.7282 I0.7282 J0.6854
G1 X8.0321 Y1.0
G1 X10.0
G3 X11.0 Y2.0 I0.0 J1.0
G1 Y4.0
G1 Y6.0 Z-3.0
G1 Y8.0 Z-3.4
G1 Y10.0
G3 X10.0 Y11.0 I-1.0 J0.0
G1 X8.0321
G1 X6.7282 Y12.3854
G3 X5.2718 I-0.7282 J-0.6854
G1 F150.0 Z-3.5
G1 F400.0 X3.9679 Y11.0
G1 X2.0
G3 X1.0 Y10.0 I0.0 J-1.0
G1 Y8.0321
G1 X-0.3854 Y6.7282
G3 Y5.2718 I0.6854 J-0.7282
G1 X1.0 Y3.9679
G1 Y2.0
G3 X2.0 Y1.0 I1.0 J0.0
G1 X3.9679
G1 X5.2718 Y-0.3854
G3 X6.7282 I0.7282 J0.6854
G1 X8.0321 Y1.0
G1 X10.0
G3 X11.0 Y2.0 I0.0 J1.0
G1 Y4.0
G1 Y6.0 Z-3.0
G1 Y8.0 Z-3.5
G1 Y10.0
G3 X10.0 Y11.0 I-1.0 J0.0
G1 X8.0321
G1 X6.7282 Y12.3854
G3 X5.2718 I-0.7282 J-0.6854
G1 F150.0 Z-3.6
G1 F400.0 X3.9679 Y11.0
G1 X2.0
G3 X1.0 Y10.0 I0.0 J-1.0
G1 Y8.0321
G1 X-0.3854 Y6.7282
G3 Y5.2718 I0.6854 J-0.7282
G1 X1.0 Y3.9679
G1 Y2.0
G3 X2.0 Y1.0 I1.0 J0.0
G1 X3.9679
G1 X5.2718 Y-0.3854
G3 X6.7282 I0.7282 J0.6854
G1 X8.0321 Y1.0
G1 X10.0
G3 X11.0 Y2.0 I0.0 J1.0
G1 Y4.0
G1 Y6.0 Z-3.0
G1 Y8.0 Z-3.6
G1 Y10.0
G3 X10.0 Y11.0 I-1.0 J0.0
G1 X8.0321
G1 X6.7282 Y12.3854
G3 X5.2718 I-0.7282 J-0.6854
G1 F150.0 Z-3.7
G1 F400.0 X3.9679 Y11.0
G1 X2.0
G3 X1.0 Y10.0 I0.0 J-1.0
G1 Y8.0321
G1 X-0.3854 Y6.7282
G3 Y5.2718 I0.6854 J-0.7282
G1 X1.0 Y3.9679
G1 Y2.0
G3 X2.0 Y1.0 I1.0 J0.0
G1 X3.9679
G1 X5.2718 Y-0.3854
G3 X6.7282 I0.7282 J0.6854
G1 X8.0321 Y1.0
G1 X10.0
G3 X11.0 Y2.0 I0.0 J1.0
G1 Y4.0
G1 Y6.0 Z-3.0
G1 Y8.0 Z-3.7
G1 Y10.0
G3 X10.0 Y11.0 I-1.0 J0.0
G1 X8.0321
G1 X6.7282 Y12.3854
G3 X5.2718 I-0.7282 J-0.6854
G1 F150.0 Z-3.8
G1 F400.0 X3.9679 Y11.0
G1 X2.0
G3 X1.0 Y10.0 I0.0 J-1.0
G1 Y8.0321
G1 X-0.3854 Y6.7282
G3 Y5.2718 I0.6854 J-0.7282
G1 X1.0 Y3.9679
G1 Y2.0
G3 X2.0 Y1.0 I1.0 J0.0
G1 X3.9679
G1 X5.2718 Y-0.3854
G3 X6.7282 I0.7282 J0.6854
G1 X8.0321 Y1.0
G1 X10.0
G3 X11.0 Y2.0 I0.0 J1.0
G1 Y4.0
G1 Y6.0 Z-3.0
G1 Y8.0 Z-3.8
G1 Y10.0
G3 X10.0 Y11.0 I-1.0 J0.0
G1 X8.0321
G1 X6.7282 Y12.3854
G3 X5.2718 I-0.7282 J-0.6854
G1 F150.0 Z-3.9
G1 F400.0 X3.9679 Y11.0
G1 X2.0
G3 X1.0 Y10.0 I0.0 J-1.0
G1 Y8.0321
G1 X-0.3854 Y6.7282
G3 Y5.2718 I0.6854 J-0.7282
G1 X1.0 Y3.9679
G1 Y2.0
G3 X2.0 Y1.0 I1.0 J0.0
G1 X3.9679
G1 X5.2718 Y-0.3854
G3 X6.7282 I0.7282 J0.6854
G1 X8.0321 Y1.0
G1 X10.0
G3 X11.0 Y2.0 I0.0 J1.0
G1 Y4.0
G1 Y6.0 Z-3.0
G1 Y8.0 Z-3.9
G1 Y10.0
G3 X10.0 Y11.0 I-1.0 J0.0
G1 X8.0321
G1 X6.7282 Y12.3854
G3 X5.2718 I-0.7282 J-0.6854
G1 F150.0 Z-4.0
G1 F400.0 X3.9679 Y11.0
G1 X2.0
G3 X1.0 Y10.0 I0.0 J-1.0
G1 Y8.0321
G1 X-0.3854 Y6.7282
G3 Y5.2718 I0.6854 J-0.7282
G1 X1.0 Y3.9679
G1 Y2.0
G3 X2.0 Y1.0 I1.0 J0.0
G1 X3.9679
G1 X5.2718 Y-0.3854
G3 X6.7282 I0.7282 J0.6854
G1 X8.0321 Y1.0
G1 X10.0
G3 X11.0 Y2.0 I0.0 J1.0
G1 Y4.0
G1 Y6.0 Z-3.0
G1 Y8.0 Z-4.0
G1 Y10.0
G3 X10.0 Y11.0 I-1.0 J0.0
G1 X8.0321
G1 X6.7282 Y12.3854
G3 X5.2718 I-0.7282 J-0.6854
G1 F150.0 Z-4.1
G1 F400.0 X3.9679 Y11.0
G1 X2.0
G3 X1.0 Y10.0 I0.0 J-1.0
G1 Y8.0321
G1 X-0.3854 Y6.7282
G3 Y5.2718 I0.6854 J-0.7282
G1 X1.0 Y3.9679
G1 Y2.0
G3 X2.0 Y1.0 I1.0 J0.0
G1 X3.9679
G1 X5.2718 Y-0.3854
G3 X6.7282 I0.7282 J0.6854
G1 X8.0321 Y1.0
G1 X10.0
G3 X11.0 Y2.0 I0.0 J1.0
G1 Y4.0
G1 Y6.0 Z-3.0
G1 Y8.0 Z-4.1
G1 Y10.0
G3 X10.0 Y11.0 I-1.0 J0.0
G1 X8.0321
G1 X6.7282 Y12.3854
G3 X5.2718 I-0.7282 J-0.6854
G1 F150.0 Z-4.2
G1 F400.0 X3.9679 Y11.0
G1 X2.0
G3 X1.0 Y10.0 I0.0 J-1.0
G1 Y8.0321
G1 X-0.3854 Y6.7282
G3 Y5.2718 I0.6854 J-0.7282
G1 X1.0 Y3.9679
G1 Y2.0
G3 X2.0 Y1.0 I1.0 J0.0
G1 X3.9679
G1 X5.2718 Y-0.3854
G3 X6.7282 I0.7282 J0.6854
G1 X8.0321 Y1.0
G1 X10.0
G3 X11.0 Y2.0 I0.0 J1.0
G1 Y4.0
G1 Y6.0 Z-3.0
G1 Y8.0 Z-4.2
G1 Y10.0
G3 X10.0 Y11.0 I-1.0 J0.0
G1 X8.0321
G1 X6.7282 Y12.3854
G3 X5.2718 I-0.7282 J-0.6854
G1 F150.0 Z-4.3
G1 F400.0 X3.9679 Y11.0
G1 X2.0
G3 X1.0 Y10.0 I0.0 J-1.0
G1 Y8.0321
G1 X-0.3854 Y6.7282
G3 Y5.2718 I0.6854 J-0.7282
G1 X1.0 Y3.9679
G1 Y2.0
G3 X2.0 Y1.0 I1.0 J0.0
G1 X3.9679
G1 X5.2718 Y-0.3854
G3 X6.7282 I0.7282 J0.6854
G1 X8.0321 Y1.0
G1 X10.0
G3 X11.0 Y2.0 I0.0 J1.0
G1 Y4.0
G1 Y6.0 Z-3.0
G1 Y8.0 Z-4.3
G1 Y10.0
G3 X10.0 Y11.0 I-1.0 J0.0
G1 X8.0321
G1 X6.7282 Y12.3854
G3 X5.2718 I-0.7282 J-0.6854
G1 F150.0 Z-4.4
G1 F400.0 X3.9679 Y11.0
G1 X2.0
G3 X1.0 Y10.0 I0.0 J-1.0
G1 Y8.0321
G1 X-0.3854 Y6.7282
G3 Y5.2718 I0.6854 J-0.7282
G1 X1.0 Y3.9679
G1 Y2.0
G3 X2.0 Y1.0 I1.0 J0.0
G1 X3.9679
G1 X5.2718 Y-0.3854
G3 X6.7282 I0.7282 J0.6854
G1 X8.0321 Y1.0
G1 X10.0
G3 X11.0 Y2.0 I0.0 J1.0
G1 Y4.0
G1 Y6.0 Z-3.0
G1 Y8.0 Z-4.4
G1 Y10.0
G3 X10.0 Y11.0 I-1.0 J0.0
G1 X8.0321
G1 X6.7282 Y12.3854
G3 X5.2718 I-0.7282 J-0.6854
G1 F150.0 Z-4.5
G1 F400.0 X3.9679 Y11.0
G1 X2.0
G3 X1.0 Y10.0 I0.0 J-1.0
G1 Y8.0321
G1 X-0.3854 Y6.7282
G3 Y5.2718 I0.6854 J-0.7282
G1 X1.0 Y3.9679
G1 Y2.0
G3 X2.0 Y1.0 I1.0 J0.0
G1 X3.9679
G1 X5.2718 Y-0.3854
G3 X6.7282 I0.7282 J0.6854
G1 X8.0321 Y1.0
G1 X10.0
G3 X11.0 Y2.0 I0.0 J1.0
G1 Y4.0
G1 Y6.0 Z-3.0
G1 Y8.0 Z-4.5
G1 Y10.0
G3 X10.0 Y11.0 I-1.0 J0.0
G1 X8.0321
G1 X6.7282 Y12.3854
G3 X5.2718 I-0.7282 J-0.6854
G1 F150.0 Z-4.6
G1 F400.0 X3.9679 Y11.0
G1 X2.0
G3 X1.0 Y10.0 I0.0 J-1.0
G1 Y8.0321
G1 X-0.3854 Y6.7282
G3 Y5.2718 I0.6854 J-0.7282
G1 X1.0 Y3.9679
G1 Y2.0
G3 X2.0 Y1.0 I1.0 J0.0
G1 X3.9679
G1 X5.2718 Y-0.3854
G3 X6.7282 I0.7282 J0.6854
G1 X8.0321 Y1.0
G1 X10.0
G3 X11.0 Y2.0 I0.0 J1.0
G1 Y4.0
G1 Y6.0 Z-3.0
G1 Y8.0 Z-4.6
G1 Y10.0
G3 X10.0 Y11.0 I-1.0 J0.0
G1 X8.0321
G1 X6.7282 Y12.3854
G3 X5.2718 I-0.7282 J-0.6854
G1 F150.0 Z-4.7
G1 F400.0 X3.9679 Y11.0
G1 X2.0
G3 X1.0 Y10.0 I0.0 J-1.0
G1 Y8.0321
G1 X-0.3854 Y6.7282
G3 Y5.2718 I0.6854 J-0.7282
G1 X1.0 Y3.9679
G1 Y2.0
G3 X2.0 Y1.0 I1.0 J0.0
G1 X3.9679
G1 X5.2718 Y-0.3854
G3 X6.7282 I0.7282 J0.6854
G1 X8.0321 Y1.0
G1 X10.0
G3 X11.0 Y2.0 I0.0 J1.0
G1 Y4.0
G1 Y6.0 Z-3.0
G1 Y8.0 Z-4.7
G1 Y10.0
G3 X10.0 Y11.0 I-1.0 J0.0
G1 X8.0321
G1 X6.7282 Y12.3854
G3 X5.2718 I-0.7282 J-0.6854
G1 F150.0 Z-4.8
G1 F400.0 X3.9679 Y11.0
G1 X2.0
G3 X1.0 Y10.0 I0.0 J-1.0
G1 Y8.0321
G1 X-0.3854 Y6.7282
G3 Y5.2718 I0.6854 J-0.7282
G1 X1.0 Y3.9679
G1 Y2.0
G3 X2.0 Y1.0 I1.0 J0.0
G1 X3.9679
G1 X5.2718 Y-0.3854
G3 X6.7282 I0.7282 J0.6854
G1 X8.0321 Y1.0
G1 X10.0
G3 X11.0 Y2.0 I0.0 J1.0
G1 Y4.0
G1 Y6.0 Z-3.0
G1 Y8.0 Z-4.8
G1 Y10.0
G3 X10.0 Y11.0 I-1.0 J0.0
G1 X8.0321
G1 X6.7282 Y12.3854
G3 X5.2718 I-0.7282 J-0.6854
G1 F150.0 Z-4.9
G1 F400.0 X3.9679 Y11.0
G1 X2.0
G3 X1.0 Y10.0 I0.0 J-1.0
G1 Y8.0321
G1 X-0.3854 Y6.7282
G3 Y5.2718 I0.6854 J-0.7282
G1 X1.0 Y3.9679
G1 Y2.0
G3 X2.0 Y1.0 I1.0 J0.0
G1 X3.9679
G1 X5.2718 Y-0.3854
G3 X6.7282 I0.7282 J0.6854
G1 X8.0321 Y1.0
G1 X10.0
G3 X11.0 Y2.0 I0.0 J1.0
G1 Y4.0
G1 Y6.0 Z-3.0
G1 Y8.0 Z-4.9
G1 Y10.0
G3 X10.0 Y11.0 I-1.0 J0.0
G1 X8.0321
G1 X6.7282 Y12.3854
G3 X5.2718 I-0.7282 J-0.6854
G1 F150.0 Z-5.0
G1 F400.0 X3.9679 Y11.0
G1 X2.0
G3 X1.0 Y10.0 I0.0 J-1.0
G1 Y8.0321
G1 X-0.3854 Y6.7282
G3 Y5.2718 I0.6854 J-0.7282
G1 X1.0 Y3.9679
G1 Y2.0
G3 X2.0 Y1.0 I1.0 J0.0
G1 X3.9679
G1 X5.2718 Y-0.3854
G3 X6.7282 I0.7282 J0.6854
G1 X8.0321 Y1.0
G1 X10.0
G3 X11.0 Y2.0 I0.0 J1.0
G1 Y4.0
G1 Y6.0 Z-3.0
G1 Y8.0 Z-5.0
G1 Y10.0
G3 X10.0 Y11.0 I-1.0 J0.0
G1 X8.0321
G1 X6.7282 Y12.3854
G3 X5.2718 I-0.7282 J-0.6854
G0 Z3.0
M5
M30
